X: 38222
T: Square Of Crossmaglen, The
R: reel
M: 4/4
K: Gdorian
~G3A B2GA|BGAG FDA,=B,|CFFE FdcA|FC~C2 A,=B,CF|
DGGA BGGD|~_E3F DGGA|BABc d2cA|1 BdA=F DGGD:|2 BdA=F DGGd||
~g3d Bcd=f|~g3d BcdB|cffe fgag|fc~c2 Acd=f|
~g3d Bcd=f|gbag fddc|~B3c AdcA|1 BdA=F DGGd:|2 BdA=F DGG2||

